X:17
M:3/4
L:1/4
K:F
F2 G | (F3/2 G/) A | B2 A | (G F) G | c2 B | A2 A | (G F) G | F3 | F2 G | (F3/2 G/) A | B2 A | (G F) G | c2 B | A2 A | (G F) G | F3 | c2 c | (c B) A | B2 B | (B A) G | A2 A | (A B) c | (c B) A | G3 | (c A) c | (B G) B | (A F) A | (G/A/ B/A/) G | !sintro!c2 c | (d c) B | A2 G | F3 !eintro!|]
